!!!COM: Palestrina, Giovanni Perluigi da
!!!OPR: Missa In duplicibus minoribus (I)
!!!OMD: Credo
!!!OTL: Et resurrexit
**kern	**kern	**kern	**kern
*Itenor	*Itenor	*Icalto	*Icant
!Tenor 2	!Tenor 1	!Altus	!Cantus
*clefGv2	*clefGv2	*clefG2	*clefG2
*k[]	*k[]	*k[]	*k[]
*E:phr	*E:phr	*E:phr	*E:phr
*M4/2	*M4/2	*M4/2	*M4/2
=83	=83	=83	=83
0r	0r	1e	0r
.	.	2d	.
.	.	2e	.
=84	=84	=84	=84
0r	1A	1c	0r
.	2G	2B	.
.	2A	[2e	.
=85	=85	=85	=85
0r	1F	2e]	0r
.	.	2d	.
.	2E	4g	.
.	.	4f	.
.	[2A	4e	.
.	.	4d	.
=86	=86	=86	=86
1r	2A]	2c	0r
.	2G	2B	.
1e	4c	2A	.
.	4B	.	.
.	4A	[2A	.
.	4G	.	.
=87	=87	=87	=87
2d	2F	2A]	0r
2e	2E	2G	.
1c	1F	4A	.
.	.	4B	.
.	.	4c	.
.	.	4A	.
=88	=88	=88	=88
2B	1D	2.d	0r
1A	.	.	.
.	.	4c	.
.	1E	1B	.
2G	.	.	.
=89	=89	=89	=89
4F	0r	4A	1a
4G	.	4B	.
4A	.	4c	.
4B	.	4d	.
4c	.	4e	2g
4d	.	4d	.
[2e	.	4c	2a
.	.	8B	.
.	.	8c	.
=90	=90	=90	=90
4e]	1r	1d	1f
4d	.	.	.
2.d	.	.	.
.	2r	1A	[1e
4c	.	.	.
2c	[2A	.	.
=91	=91	=91	=91
1B	2A]	1E	1e]
.	2G	.	.
1A	4c	1e	2r
.	4B	.	.
.	4A	.	[2a
.	4G	.	.
=92	=92	=92	=92
0r	2F	2d	2a]
.	2E	2e	2g
.	2A	1c	4cc
.	.	.	4b
.	[2F	.	4a
.	.	.	4g
=93	=93	=93	=93
0r	2F]	2A	4f
.	.	.	4e
.	2D	1d	2f
.	1A	.	1e
.	.	2c	.
=94	=94	=94	=94
0r	1D	4f	2d
.	.	4e	.
.	.	4d	2f
.	.	4c	.
.	[1E	2B	2g
.	.	2A	[2a
=95	=95	=95	=95
1r	1E]	1B	4a]
.	.	.	8g#
.	.	.	8f#
.	.	.	2g#
2r	1r	2.A	2.a
[2A	.	.	.
.	.	4B	8g
.	.	.	8f
=96	=96	=96	=96
2A]	0r	2c	1e
2G	.	2B	.
2A	.	2c	2f
2B	.	2d	[2g
=97	=97	=97	=97
1G	0r	4e	2g]
.	.	4d	.
.	.	1d	2f
2.A	.	.	1e
.	.	2c#	.
4G	.	.	.
=98	=98	=98	=98
4F	2r	4d	1d
4E	.	4e	.
2D	1d	4f	.
.	.	4d	.
1A	.	1e	2r
.	2c	.	[2a
=99	=99	=99	=99
0r	2d	0r	2a]
.	2e	.	2g
.	2c	.	2a
.	2d	.	2b
=100	=100	=100	=100
0r	4e	2r	2.g
.	4d	.	.
.	4c	1e	.
.	4B	.	8a
.	.	.	8b
.	2A	.	2cc
.	2B	2d	[2b
=101	=101	=101	=101
1r	2c	2e	4b]
.	.	.	4a
.	2d	2f	1a
2r	1B-	1d	.
[2d	.	.	2g
=102	=102	=102	=102
2d]	1A	2e	1a
2c	.	1a	.
2d	1r	.	1b
2e	.	2g	.
=103	=103	=103	=103
2c#	2r	2e	1a
2d	1d	2f	.
2.A	.	1e	2r
.	2c	.	[2a
4G	.	.	.
=104	=104	=104	=104
2F	2d	2A	2a]
2E	2e	2B	2g
2F	2c	2A	2a
2D	[2d	2f	2b
=105	=105	=105	=105
0E	4d]	1e	2g
.	4c	.	.
.	4c	.	1a
.	8B	.	.
.	8A	.	.
.	1B	1e	.
.	.	.	2g#
=106	=106	=106	=106
[0A	[0A	[0e	[0a
=107	=107	=107	=107
0A]	0A]	0e]	0a]
*-	*-	*-	*-
!!!CDT: 1525/^1526/-1594/2/2
!!!OCY: Italia
!!!AGN: Mass (Paraphrase)
!!!AST: renaissance, vocal
!!!ASW: Gregorian Mass
!!!PWK: Masses, Book Mantuan I
!!!RNB: Cadence finals: A
!!!YOR: Le Opere Complete, v. 18, p. 42
!!!YOO: Rome, Italy: Fratelli Scalera
!!!END: 1992//
!!!EED: John Miller
!!!YEC: Copyright 2000, John Miller
!!!YEN: United States of America
!!!YEM: Rights to all derivative electronic formats reserved.
!!!YEM: Refer to licensing agreement for further details.
!!!YEM: This file must be accompanied by the licensing agreement.
!!!YEM: A copy of the licensing agreement may be found at http://www.music-cog.ohio-state.edu/HumdrumDatabases/Palestrina/license.txt
!!!EMD: converted to Humdrum by Bret Aarden
